X:70
T:March to the Meadow
M:4/4
C:© Paul Gitlitz 2008
R:march
K:A
fg|"A"a2e2c2A2|"F#m"BAcAF2E2|"A"EA2A ABcd|"E"ecef e2fg|!
"A"a2e2c2A2|"F#m"BAcAF2E2|"A"EA2c "E"efed|1"A"c2A2A2:|2"A"c2A2A2ed|!
|:"A"c4 cdef|"C#m"e2d2c2A2|"Bm"B4 Bcdc|"E"B2A2G2E2|!
"A"A4 ABcd|"F#m"e2d2c2a2|"A"c2A2"E"B2c2|1"A"A6ed:|2"A"A8|]
